svg/furkot/yannick/sunset.svg

<svg viewBox="0 0 512 512" xmlns="http://www.w3.org/2000/svg"><path d="m256.282 121.371c8.041 0 13.541-5.36 13.541-13.541v-53.88c0-8.039-5.36-13.54-13.541-13.54s-13.54 5.36-13.54 13.54v53.88c.141 8.181 5.5 13.541 13.54 13.541zm143.022 51.341 37.8-37.801c5.361-5.359 5.361-13.54 0-18.9-5.36-5.36-13.54-5.36-18.899 0l-37.8 37.801c-5.361 5.359-5.361 13.54 0 18.9 5.358 5.36 13.539 5.36 18.899 0zm-291.403 137.521h296.761c0-5.36 0-8.039 0-13.541 0-80.961-67.42-148.381-148.381-148.381s-148.382 67.42-148.382 148.381c.002 5.501.002 8.181.002 13.541zm323.843-13.4c0 8.04 5.36 13.542 13.542 13.542h53.879c8.039 0 13.542-5.36 13.542-13.542 0-8.181-5.36-13.54-13.542-13.54h-53.88c-5.501 0-13.541 8.039-13.541 13.54zm67.419 67.42h-164.6l-32.441 26.94-48.52 40.481-43.16-40.481-32.3-26.94h-164.602c-5.359 0-13.54 5.36-13.54 13.541s8.04 13.54 13.54 13.54h148.382l94.36 80.961 94.36-80.961h148.382c8.039 0 13.54-5.359 13.54-13.54s-5.36-13.541-13.401-13.541zm-385.761-191.541c5.359 5.36 13.54 5.36 18.9 0s5.36-13.541 0-18.9l-37.801-37.801c-5.359-5.36-13.54-5.36-18.9 0s-5.36 13.541 0 18.9zm-99.862 137.521h53.88c5.36 0 13.541-5.36 13.541-13.541 0-5.36-5.36-13.542-13.541-13.542h-53.88c-8.039 0-13.54 8.04-13.54 13.542.141 8.181 5.501 13.541 13.54 13.541z"/></svg>

<svg xmlns="http://www.w3.org/2000/svg" viewBox="0 0 512 512"><path d="M256.282 121.371C264.323 121.371 269.823 116.011 269.823 107.83V53.95C269.823 45.911 264.463 40.41 256.282 40.41 248.101 40.41 242.742 45.77 242.742 53.95V107.83C242.883 116.011 248.242 121.371 256.282 121.371ZM399.304 172.712L437.104 134.911C442.465 129.552 442.465 121.371 437.104 116.011 431.744 110.651 423.564 110.651 418.205 116.011L380.405 153.812C375.044 159.171 375.044 167.352 380.405 172.712 385.763 178.072 393.944 178.072 399.304 172.712ZM107.901 310.233H404.662C404.662 304.873 404.662 302.194 404.662 296.692 404.662 215.731 337.242 148.311 256.281 148.311S107.899 215.731 107.899 296.692C107.901 302.193 107.901 304.873 107.901 310.233ZM431.744 296.833C431.744 304.873 437.104 310.375 445.286 310.375H499.165C507.204 310.375 512.707 305.015 512.707 296.833 512.707 288.652 507.347 283.293 499.165 283.293H445.285C439.784 283.293 431.744 291.332 431.744 296.833ZM499.163 364.253H334.563L302.122 391.193 253.602 431.674 210.442 391.193 178.142 364.253H13.54C8.181 364.253 0 369.613 0 377.794S8.04 391.334 13.54 391.334H161.922L256.282 472.295 350.642 391.334H499.024C507.063 391.334 512.564 385.975 512.564 377.794S507.204 364.253 499.163 364.253ZM113.402 172.712C118.761 178.072 126.942 178.072 132.302 172.712 137.662 167.352 137.662 159.171 132.302 153.812L94.501 116.011C89.142 110.651 80.961 110.651 75.601 116.011 70.241 121.371 70.241 129.552 75.601 134.911L113.402 172.712ZM13.54 310.233H67.42C72.78 310.233 80.961 304.873 80.961 296.692 80.961 291.332 75.601 283.15 67.42 283.15H13.54C5.501 283.15 0 291.19 0 296.692 0.141 304.873 5.501 310.233 13.54 310.233Z"/></svg>
